!!! OTL: Berkowitz336
!!! Chapter: 1
!!! Section: III
!!! Page: 82
!!! Mode: 
!!! Encoder: DJB
**kern
*staff1
*I"Piano
=1-
*clefG2
*k[f#c#g#d#a#e#]
*F#:
*M6/8
8f#/L
8a#/
16g#/L
16f#/JJ
8e#/L
8g#/
16f#/L
16e#/JJ
=2
4f#/
8c#/
4d#/
16g#/LL
16a#/JJ
=3
8b\L
8dd#\
16cc#\L
16b\JJ
8a#/L
8b/
8a#/J
=4
[4.g#/
4g#/]
16a#/LL
16b/JJ
=5
8cc#/L
8a#/
8f#/J
8d#/L
8g#/
8d#/J
=6
8e#/L
8a#/
8e#/J
8f#/L
8b/
8g#/J
=7
!!linebreak:original
8.a#/L
16b/K
8a#/J
8g#/L
8f#/
8e#/J
=8
2.f#/
==
*-
